!!!OTL: Gallant Brigantine
!!!ONM: 36.
**kern
*clefG2
*k[b-]
*F:
*M6/8
*MM84
{4f
8e
=1
8a
8.cc
16a
(8g
8f)
8c
=2
8d
4f
4r
8c
=3
4d
8f
4f
8e
=4
4.f
8r}
{8cc
8cc
=5
4cc
8cc
(8a
8cc)
8ee
=6
4.ff
4ee
8cc
=7
4cc
8cc
(8dd
8cc)
8a
=8
4.cc
4r}
{8cc
=9
4.cc
(8a
8cc)
8ee
=10
4.ff
(8ff
8ee)
8cc
=11
8cc
8cc
8cc
(8dd
8cc)
8a
=12
4.cc
4r}
{8f
=13
4a
8g
4a
16f
16f
=14
8g
4b-
4a
8c
=15
4d
8f
4f
8e
=16
[4.f
8f]
8r
8r}
==
*-
!!!CNT: Folksongs of Maritime Canada
!!!MRD: 1928///-1932///
!!!OCL: Helen Creighton
!!!YOR: Songs and Ballads from Nova Scotia
!!!PPR: J.M. Dent & Sons, Limited
!!!PPP: Toronto, Canada
!!!PDT: 1932///
!!!reprint: Dover Publications, 1992: ISBN 0-486-21703-5
!!!ENC1: Craig Stuart Sapp (music and bibliographic data)                       
!!!ENC2: Marcus Pearce (phrase markings and key designations)                   
!!!ENC3: Darrell Conklin (phrase markings and key designations)   
!!!END: 2002/04/10/
!!!EEV: 2004/06/05
!!!MPN: Mr. Tom Henneberry and Mr. Ben Henneberry
!!!PPG: 73
!!!EFL: 36/152
!!!ARE: Canada; Nova Scotia
!!!verses: 7
!!!VTS: 561310673
